static/img/kroki/26d33bd9e83b8f68bc61a8847f6133d1.svg

<?xml version="1.0" encoding="us-ascii" standalone="no"?><svg xmlns="http://www.w3.org/2000/svg" xmlns:xlink="http://www.w3.org/1999/xlink" contentStyleType="text/css" height="352px" preserveAspectRatio="none" style="width:336px;height:352px;" version="1.1" viewBox="0 0 336 352" width="336px" zoomAndPan="magnify"><defs/><g><!--class aws_iam_group--><g id="elem_aws_iam_group"><rect codeLine="22" fill="#3D176E" height="39.7891" id="aws_iam_group" rx="2.5" ry="2.5" style="stroke:#000D19;stroke-width:0.5;" width="173" x="7" y="106.79"/><ellipse cx="22" cy="126.6845" fill="#ADD1B2" rx="11" ry="11" style="stroke:#181818;stroke-width:1.0;"/><path d="M24.9688,132.3252 Q24.3906,132.622 23.75,132.7627 Q23.1094,132.9189 22.4063,132.9189 Q19.9063,132.9189 18.5781,131.2783 Q17.2656,129.622 17.2656,126.497 Q17.2656,123.372 18.5781,121.7158 Q19.9063,120.0595 22.4063,120.0595 Q23.1094,120.0595 23.75,120.2158 Q24.4063,120.372 24.9688,120.6689 L24.9688,123.3877 Q24.3438,122.8095 23.75,122.5439 Q23.1563,122.2627 22.5313,122.2627 Q21.1875,122.2627 20.5,123.3408 Q19.8125,124.4033 19.8125,126.497 Q19.8125,128.5908 20.5,129.6689 Q21.1875,130.7314 22.5313,130.7314 Q23.1563,130.7314 23.75,130.4658 Q24.3438,130.1845 24.9688,129.6064 L24.9688,132.3252 Z " fill="#000000"/><text fill="#D9B8FF" font-family="Helvetica" font-size="17" lengthAdjust="spacing" textLength="131" x="41" y="132.5698">aws_iam_group</text></g><!--class aws_iam_policy--><g id="elem_aws_iam_policy"><rect codeLine="24" fill="#3D176E" height="39.7891" id="aws_iam_policy" rx="2.5" ry="2.5" style="stroke:#000D19;stroke-width:0.5;" width="173" x="112" y="306.37"/><ellipse cx="127" cy="326.2645" fill="#ADD1B2" rx="11" ry="11" style="stroke:#181818;stroke-width:1.0;"/><path d="M129.9688,331.9052 Q129.3906,332.202 128.75,332.3427 Q128.1094,332.4989 127.4063,332.4989 Q124.9063,332.4989 123.5781,330.8583 Q122.2656,329.202 122.2656,326.077 Q122.2656,322.952 123.5781,321.2958 Q124.9063,319.6395 127.4063,319.6395 Q128.1094,319.6395 128.75,319.7958 Q129.4063,319.952 129.9688,320.2489 L129.9688,322.9677 Q129.3438,322.3895 128.75,322.1239 Q128.1563,321.8427 127.5313,321.8427 Q126.1875,321.8427 125.5,322.9208 Q124.8125,323.9833 124.8125,326.077 Q124.8125,328.1708 125.5,329.2489 Q126.1875,330.3114 127.5313,330.3114 Q128.1563,330.3114 128.75,330.0458 Q129.3438,329.7645 129.9688,329.1864 L129.9688,331.9052 Z " fill="#000000"/><text fill="#D9B8FF" font-family="Helvetica" font-size="17" lengthAdjust="spacing" textLength="131" x="146" y="332.1498">aws_iam_policy</text></g><!--class aws_iam_user--><g id="elem_aws_iam_user"><rect codeLine="26" fill="#3D176E" height="39.7891" id="aws_iam_user" rx="2.5" ry="2.5" style="stroke:#000D19;stroke-width:0.5;" width="161" x="118" y="206.58"/><ellipse cx="133" cy="226.4745" fill="#ADD1B2" rx="11" ry="11" style="stroke:#181818;stroke-width:1.0;"/><path d="M135.9688,232.1152 Q135.3906,232.412 134.75,232.5527 Q134.1094,232.7089 133.4063,232.7089 Q130.9063,232.7089 129.5781,231.0683 Q128.2656,229.412 128.2656,226.287 Q128.2656,223.162 129.5781,221.5058 Q130.9063,219.8495 133.4063,219.8495 Q134.1094,219.8495 134.75,220.0058 Q135.4063,220.162 135.9688,220.4589 L135.9688,223.1777 Q135.3438,222.5995 134.75,222.3339 Q134.1563,222.0527 133.5313,222.0527 Q132.1875,222.0527 131.5,223.1308 Q130.8125,224.1933 130.8125,226.287 Q130.8125,228.3808 131.5,229.4589 Q132.1875,230.5214 133.5313,230.5214 Q134.1563,230.5214 134.75,230.2558 Q135.3438,229.9745 135.9688,229.3964 L135.9688,232.1152 Z " fill="#000000"/><text fill="#D9B8FF" font-family="Helvetica" font-size="17" lengthAdjust="spacing" textLength="119" x="152" y="232.3598">aws_iam_user</text></g><!--class aws_region--><g id="elem_aws_region"><rect codeLine="28" fill="#3D176E" height="39.7891" id="aws_region" rx="2.5" ry="2.5" style="stroke:#000D19;stroke-width:0.5;" width="137" x="165" y="7"/><ellipse cx="180" cy="26.8945" fill="#ADD1B2" rx="11" ry="11" style="stroke:#181818;stroke-width:1.0;"/><path d="M182.9688,32.5352 Q182.3906,32.832 181.75,32.9727 Q181.1094,33.1289 180.4063,33.1289 Q177.9063,33.1289 176.5781,31.4883 Q175.2656,29.832 175.2656,26.707 Q175.2656,23.582 176.5781,21.9258 Q177.9063,20.2695 180.4063,20.2695 Q181.1094,20.2695 181.75,20.4258 Q182.4063,20.582 182.9688,20.8789 L182.9688,23.5977 Q182.3438,23.0195 181.75,22.7539 Q181.1563,22.4727 180.5313,22.4727 Q179.1875,22.4727 178.5,23.5508 Q177.8125,24.6133 177.8125,26.707 Q177.8125,28.8008 178.5,29.8789 Q179.1875,30.9414 180.5313,30.9414 Q181.1563,30.9414 181.75,30.6758 Q182.3438,30.3945 182.9688,29.8164 L182.9688,32.5352 Z " fill="#000000"/><text fill="#D9B8FF" font-family="Helvetica" font-size="17" lengthAdjust="spacing" textLength="95" x="199" y="32.7798">aws_region</text></g><!--link aws_iam_group to aws_iam_policy--><g id="link_aws_iam_group_aws_iam_policy"><path codeLine="30" d="M90.07,147.02 C86.69,171.59 84.14,214.63 100.5,246.37 C112.82,270.28 135.96,289.44 156.66,302.89 " fill="none" id="aws_iam_group-to-aws_iam_policy" style="stroke:#1A83AF;stroke-width:2.0;"/><polygon fill="#1A83AF" points="160.59,306.01,155.1176,297.8214,156.3629,303.3395,150.8448,304.5848,160.59,306.01" style="stroke:#1A83AF;stroke-width:2.0;"/></g><!--link aws_iam_group to aws_iam_user--><g id="link_aws_iam_group_aws_iam_user"><path codeLine="31" d="M114.24,147.01 C131.36,162.95 155.68,185.6 173.8,202.47 " fill="none" id="aws_iam_group-to-aws_iam_user" style="stroke:#1A83AF;stroke-width:2.0;"/><polygon fill="#1A83AF" points="176.8,205.2,172.9321,196.1424,173.1381,201.7956,167.485,202.0015,176.8,205.2" style="stroke:#1A83AF;stroke-width:2.0;"/></g><!--link aws_iam_user to aws_iam_policy--><g id="link_aws_iam_user_aws_iam_policy"><path codeLine="32" d="M198.5,246.8 C198.5,262.07 198.5,283.5 198.5,300.11 " fill="none" id="aws_iam_user-to-aws_iam_policy" style="stroke:#1A83AF;stroke-width:2.0;"/><polygon fill="#1A83AF" points="198.5,304.99,202.5,295.99,198.5,299.99,194.5,295.99,198.5,304.99" style="stroke:#1A83AF;stroke-width:2.0;"/></g><!--link aws_region to aws_iam_group--><g id="link_aws_region_aws_iam_group"><path codeLine="33" d="M205.84,47.22 C182.83,63.29 150.04,86.19 125.83,103.11 " fill="none" id="aws_region-to-aws_iam_group" style="stroke:#1A83AF;stroke-width:2.0;"/><polygon fill="#1A83AF" points="122.1,106.41,131.7709,104.5461,126.2022,103.5513,127.197,97.9826,122.1,106.41" style="stroke:#1A83AF;stroke-width:2.0;"/></g><!--link aws_region to aws_iam_policy--><g id="link_aws_region_aws_iam_policy"><path codeLine="34" d="M247.98,47.07 C275.51,86.06 329.82,176.76 296.5,246.37 C284.97,270.45 262.12,289.51 241.38,302.87 " fill="none" id="aws_region-to-aws_iam_policy" style="stroke:#1A83AF;stroke-width:2.0;"/><polygon fill="#1A83AF" points="237.44,305.97,247.1886,304.5684,241.6736,303.3097,242.9322,297.7947,237.44,305.97" style="stroke:#1A83AF;stroke-width:2.0;"/></g><!--link aws_region to aws_iam_user--><g id="link_aws_region_aws_iam_user"><path codeLine="35" d="M230.08,47.2 C223.7,83.2 210,160.55 202.93,200.48 " fill="none" id="aws_region-to-aws_iam_user" style="stroke:#1A83AF;stroke-width:2.0;"/><polygon fill="#1A83AF" points="201.93,205.09,207.4359,196.9239,202.8006,200.1664,199.5581,195.531,201.93,205.09" style="stroke:#1A83AF;stroke-width:2.0;"/></g><!--SRC=[ZP11Qy9048Nl_ee5pqBIqAgNGWn8Uv5IUoj5nkniN4nsm-ocOal_UqsqPRDHu_MzZ_VUp4PoP5YKTiyABDP8Pc2sKfL0KB2OIEyIdMjYGo50H6FVd6jbUu455CYUCFz4ArFmYRUDJBSAZM5tZZM3T9kHhXG_nbi2PGuMAkjGIGx6nDQIN5SMdJ5ykfu8uPD-w33YuVW1EvWcZdH2WY3WuTH7UgkktlrFBEKNij1zsa9RxCpiL3JKrPKruOpi7FhdNzpu0fnBbR5xHtizRYA5rDAN6-1wLzC2SkFM68k4skvBJ3fNuNJ2nVWi_7m9JklFCTYPbOHYLHCb-nxyU7gfSvdkpnYLEInlouIPrAeHsx6Zzs4OJw9u_Z5wz99l8UkgGQktB_2qv2pM5FLIDuRLQtu1]--></g></svg>

<svg xmlns="http://www.w3.org/2000/svg" width="336" height="352" preserveAspectRatio="none" style="width:336px;height:352px"><rect width="173" height="39.789" x="7" y="106.79" fill="#3D176E" rx="2.5" ry="2.5" style="stroke:#000d19;stroke-width:.5"/><circle cx="22" cy="126.684" r="11" fill="#ADD1B2" style="stroke:#181818;stroke-width:1"/><path d="M24.969 132.325q-.578.297-1.219.438-.64.156-1.344.156-2.5 0-3.828-1.64-1.312-1.657-1.312-4.782t1.312-4.781q1.328-1.656 3.828-1.656.703 0 1.344.156.656.156 1.219.453v2.719q-.625-.579-1.219-.844-.594-.281-1.219-.281-1.343 0-2.031 1.078-.688 1.062-.688 3.156 0 2.094.688 3.172.688 1.062 2.031 1.062.625 0 1.219-.265.594-.281 1.219-.86v2.72Z"/><text x="41" y="132.57" fill="#D9B8FF" font-family="Helvetica" font-size="17" textLength="131">aws_iam_group</text><rect width="173" height="39.789" x="112" y="306.37" fill="#3D176E" rx="2.5" ry="2.5" style="stroke:#000d19;stroke-width:.5"/><circle cx="127" cy="326.264" r="11" fill="#ADD1B2" style="stroke:#181818;stroke-width:1"/><path d="M129.969 331.905q-.578.297-1.219.438-.64.156-1.344.156-2.5 0-3.828-1.64-1.312-1.657-1.312-4.782t1.312-4.781q1.328-1.656 3.828-1.656.703 0 1.344.156.656.156 1.219.453v2.719q-.625-.579-1.219-.844-.594-.281-1.219-.281-1.344 0-2.031 1.078-.688 1.062-.688 3.156 0 2.094.688 3.172.688 1.062 2.031 1.062.625 0 1.219-.265.594-.281 1.219-.86v2.72Z"/><text x="146" y="332.15" fill="#D9B8FF" font-family="Helvetica" font-size="17" textLength="131">aws_iam_policy</text><rect width="161" height="39.789" x="118" y="206.58" fill="#3D176E" rx="2.5" ry="2.5" style="stroke:#000d19;stroke-width:.5"/><circle cx="133" cy="226.475" r="11" fill="#ADD1B2" style="stroke:#181818;stroke-width:1"/><path d="M135.969 232.115q-.578.297-1.219.438-.64.156-1.344.156-2.5 0-3.828-1.64-1.312-1.657-1.312-4.782t1.312-4.781q1.328-1.656 3.828-1.656.703 0 1.344.156.656.156 1.219.453v2.719q-.625-.578-1.219-.844-.594-.281-1.219-.281-1.344 0-2.031 1.078-.688 1.062-.688 3.156 0 2.094.688 3.172.688 1.062 2.031 1.062.625 0 1.219-.265.594-.281 1.219-.86v2.72Z"/><text x="152" y="232.36" fill="#D9B8FF" font-family="Helvetica" font-size="17" textLength="119">aws_iam_user</text><rect width="137" height="39.789" x="165" y="7" fill="#3D176E" rx="2.5" ry="2.5" style="stroke:#000d19;stroke-width:.5"/><circle cx="180" cy="26.895" r="11" fill="#ADD1B2" style="stroke:#181818;stroke-width:1"/><path d="M182.969 32.535q-.578.297-1.219.438-.64.156-1.344.156-2.5 0-3.828-1.64-1.312-1.657-1.312-4.782t1.312-4.781q1.328-1.656 3.828-1.656.703 0 1.344.156.656.156 1.219.453v2.719q-.625-.578-1.219-.844-.594-.281-1.219-.281-1.344 0-2.031 1.078-.688 1.062-.688 3.156 0 2.094.688 3.172.688 1.062 2.031 1.062.625 0 1.219-.265.594-.281 1.219-.86v2.72Z"/><text x="199" y="32.78" fill="#D9B8FF" font-family="Helvetica" font-size="17" textLength="95">aws_region</text><path fill="none" d="M90.07 147.02c-3.38 24.57-5.93 67.61 10.43 99.35 12.32 23.91 35.46 43.07 56.16 56.52" style="stroke:#1a83af;stroke-width:2"/><path fill="#1A83AF" d="m160.59 306.01-5.472-8.189 1.245 5.518-5.518 1.246 9.745 1.425z" style="stroke:#1a83af;stroke-width:2"/><path fill="none" d="M114.24 147.01c17.12 15.94 41.44 38.59 59.56 55.46" style="stroke:#1a83af;stroke-width:2"/><path fill="#1A83AF" d="m176.8 205.2-3.868-9.058.206 5.654-5.653.206 9.315 3.198z" style="stroke:#1a83af;stroke-width:2"/><path fill="none" d="M198.5 246.8v53.31" style="stroke:#1a83af;stroke-width:2"/><path fill="#1A83AF" d="m198.5 304.99 4-9-4 4-4-4 4 9z" style="stroke:#1a83af;stroke-width:2"/><path fill="none" d="M205.84 47.22c-23.01 16.07-55.8 38.97-80.01 55.89" style="stroke:#1a83af;stroke-width:2"/><path fill="#1A83AF" d="m122.1 106.41 9.67-1.864-5.568-.995.995-5.568-5.097 8.427z" style="stroke:#1a83af;stroke-width:2"/><path fill="none" d="M247.98 47.07c27.53 38.99 81.84 129.69 48.52 199.3-11.53 24.08-34.38 43.14-55.12 56.5" style="stroke:#1a83af;stroke-width:2"/><path fill="#1A83AF" d="m237.44 305.97 9.749-1.402-5.515-1.258 1.258-5.515-5.492 8.175z" style="stroke:#1a83af;stroke-width:2"/><path fill="none" d="M230.08 47.2c-6.38 36-20.08 113.35-27.15 153.28" style="stroke:#1a83af;stroke-width:2"/><path fill="#1A83AF" d="m201.93 205.09 5.506-8.166-4.635 3.242-3.243-4.635 2.372 9.559z" style="stroke:#1a83af;stroke-width:2"/></svg>
